X:559
T: KOMM ZU MIR IN GARTEN
N: E0530
O: Europa, Mitteleuropa, Deutschland, Franken ?
R: Liebes - Lied
M: 3/4
L: 1/8
K: G
D2 | GAB2AG | AFD2
d2 | dcB2AG | A4
AB | c2c2BA | GFG2
c2 | BAG2F2 | G4

